X: 1324
T: Miss Brady
R:Reel
B:O'Neill's 1324
Z:Transcribed by Trish O'Neil
M:C|
L:1/8
K:Em
EFGA {c}BAB^c|dDDE (FD)(FD)|EFGA BAGF|G(BA)(F G)EE2::
efge faf^d|efge fddf|gfe^d (3efg fe|dBAF GE Ez:|


